localPackages/DesignSystem/Sources/DesignSystem/Resources/Assets.xcassets/IconSet/ic-arrow-right-arrow-left.imageset/ic-arrow-right-arrow-left.svg

<svg width="24" height="24" viewBox="0 0 24 24" fill="none" xmlns="http://www.w3.org/2000/svg">
<g id="ic-arrow-right-arrow-left">
<path id="Icon" fill-rule="evenodd" clip-rule="evenodd" d="M1.71967 16.7197C1.42678 17.0126 1.42678 17.4874 1.71967 17.7803L6.21967 22.2803C6.51256 22.5732 6.98744 22.5732 7.28033 22.2803C7.57322 21.9874 7.57322 21.5126 7.28033 21.2197L4.06066 18L21.72 18C22.1342 18 22.47 17.6642 22.47 17.25C22.47 16.8358 22.1342 16.5 21.72 16.5L4.06066 16.5L7.28033 13.2803C7.57322 12.9874 7.57322 12.5126 7.28033 12.2197C6.98744 11.9268 6.51256 11.9268 6.21967 12.2197L1.71967 16.7197ZM1.52999 6.75C1.52999 7.16421 1.86578 7.5 2.27999 7.5L19.9393 7.5L16.7197 10.7197C16.4268 11.0126 16.4268 11.4874 16.7197 11.7803C17.0126 12.0732 17.4874 12.0732 17.7803 11.7803L22.2803 7.28033C22.5732 6.98744 22.5732 6.51256 22.2803 6.21967L17.7803 1.71967C17.4874 1.42678 17.0126 1.42678 16.7197 1.71967C16.4268 2.01256 16.4268 2.48744 16.7197 2.78033L19.9393 6L2.27999 6C1.86578 6 1.52999 6.33579 1.52999 6.75Z" fill="#0F0F0F"/>
</g>
</svg>

<svg xmlns="http://www.w3.org/2000/svg" width="24" height="24" viewBox="0 0 24 24">
  <g class="ic-arrow-right-arrow-left">
    <path fill-rule="evenodd" d="M1.72 16.72a.75.75 0 0 0 0 1.06l4.5 4.5a.75.75 0 0 0 1.06-1.06L4.06 18h17.66a.75.75 0 0 0 0-1.5H4.06l3.22-3.22a.75.75 0 1 0-1.06-1.06l-4.5 4.5Zm-.19-9.97c0 .414.336.75.75.75h17.66l-3.22 3.22a.75.75 0 1 0 1.06 1.06l4.5-4.5a.75.75 0 0 0 0-1.06l-4.5-4.5a.75.75 0 1 0-1.06 1.06L19.94 6H2.28a.75.75 0 0 0-.75.75Z" class="Icon"/>
  </g>
</svg>
